X:18
T:D-Dur-Schleuniger #11
M:3/4
L:1/8
C:trad
R:Schleuniger
S:j.m. schmalnauer: "tanz musik", böhlau, wien 1996 (compa bd. 5)
K:D
(A4  F2) |G4  ([A2,E2] |[A2,E2]) egec|1Adfafd:|2d4  cd[|
(Ac)egec|Adfafd|Acegec|1fdAGFA :|2d4    ||
%T.2 auf T.3 gehört gebunden; evtl. händisch eintragen!
